Newaita-dark/apps/128/kget.svg

<?xml version="1.0" encoding="UTF-8"?>
<svg xmlns="http://www.w3.org/2000/svg" xmlns:xlink="http://www.w3.org/1999/xlink" width="128pt" height="128pt" viewBox="0 0 128 128" version="1.1">
<defs>
<radialGradient id="radial0" gradientUnits="userSpaceOnUse" cx="450.908936" cy="189.579361" fx="450.908936" fy="189.579361" r="21.166656" gradientTransform="matrix(0.000000696681,-0.31253,-0.562554,-0.000000406154,168.831303,254.38133)">
<stop offset="0" style="stop-color:rgb(0%,0%,0%);stop-opacity:0.313725;"/>
<stop offset="0.222222" style="stop-color:rgb(0%,0%,0%);stop-opacity:0.27451;"/>
<stop offset="1" style="stop-color:rgb(0%,0%,0%);stop-opacity:0;"/>
</radialGradient>
<radialGradient id="radial1" gradientUnits="userSpaceOnUse" cx="450.908936" cy="189.579361" fx="450.908936" fy="189.579361" r="21.166656" gradientTransform="matrix(-0.000000696681,0.31253,0.562554,0.000000406154,-41.819163,-30.109915)">
<stop offset="0" style="stop-color:rgb(0%,0%,0%);stop-opacity:0.313725;"/>
<stop offset="0.222222" style="stop-color:rgb(0%,0%,0%);stop-opacity:0.27451;"/>
<stop offset="1" style="stop-color:rgb(0%,0%,0%);stop-opacity:0;"/>
</radialGradient>
<radialGradient id="radial2" gradientUnits="userSpaceOnUse" cx="450.908936" cy="189.579361" fx="450.908936" fy="189.579361" r="21.166656" gradientTransform="matrix(-0.000000696681,-0.31253,0.562554,-0.000000406154,-41.819163,254.38133)">
<stop offset="0" style="stop-color:rgb(0%,0%,0%);stop-opacity:0.313725;"/>
<stop offset="0.222222" style="stop-color:rgb(0%,0%,0%);stop-opacity:0.27451;"/>
<stop offset="1" style="stop-color:rgb(0%,0%,0%);stop-opacity:0;"/>
</radialGradient>
<radialGradient id="radial3" gradientUnits="userSpaceOnUse" cx="450.908936" cy="189.579361" fx="450.908936" fy="189.579361" r="21.166656" gradientTransform="matrix(0.000000696681,0.31253,-0.562554,0.000000406154,168.831295,-30.109917)">
<stop offset="0" style="stop-color:rgb(0%,0%,0%);stop-opacity:0.313725;"/>
<stop offset="0.222222" style="stop-color:rgb(0%,0%,0%);stop-opacity:0.27451;"/>
<stop offset="1" style="stop-color:rgb(0%,0%,0%);stop-opacity:0;"/>
</radialGradient>
<filter id="alpha" filterUnits="objectBoundingBox" x="0%" y="0%" width="100%" height="100%">
  <feColorMatrix type="matrix" in="SourceGraphic" values="0 0 0 0 1 0 0 0 0 1 0 0 0 0 1 0 0 0 1 0"/>
</filter>
<mask id="mask0">
  <g filter="url(#alpha)">
<rect x="0" y="0" width="128" height="128" style="fill:rgb(0%,0%,0%);fill-opacity:0.988235;stroke:none;"/>
  </g>
</mask>
<linearGradient id="linear0" gradientUnits="userSpaceOnUse" x1="960" y1="1695.118164" x2="960" y2="175.118118" gradientTransform="matrix(0.0661521,0,0,0.0661521,0,0)">
<stop offset="0" style="stop-color:rgb(14.901961%,77.647059%,85.490196%);stop-opacity:1;"/>
<stop offset="1" style="stop-color:rgb(30.196078%,81.568627%,88.235294%);stop-opacity:1;"/>
</linearGradient>
<clipPath id="clip1">
  <rect x="0" y="0" width="128" height="128"/>
</clipPath>
<g id="surface5" clip-path="url(#clip1)">
<path style=" stroke:none;fill-rule:nonzero;fill:url(#linear0);" d="M 47.628906 11.585938 C 44.699219 11.585938 42.335938 13.945312 42.335938 16.875 L 42.335938 69.796875 L 26.460938 69.796875 C 21.546875 69.800781 19.289062 75.910156 23.015625 79.109375 L 60.0625 110.863281 C 62.042969 112.558594 64.96875 112.558594 66.949219 110.863281 L 103.996094 79.109375 C 107.726562 75.910156 105.464844 69.800781 100.550781 69.796875 L 84.675781 69.796875 L 84.675781 16.875 C 84.675781 13.945312 82.3125 11.585938 79.382812 11.585938 Z M 47.628906 11.585938 "/>
</g>
<mask id="mask1">
  <g filter="url(#alpha)">
<rect x="0" y="0" width="128" height="128" style="fill:rgb(0%,0%,0%);fill-opacity:0.988235;stroke:none;"/>
  </g>
</mask>
<clipPath id="clip2">
  <rect x="0" y="0" width="128" height="128"/>
</clipPath>
<g id="surface8" clip-path="url(#clip2)">
<path style=" stroke:none;fill-rule:nonzero;fill:rgb(100%,100%,100%);fill-opacity:0.392157;" d="M 47.628906 11.585938 C 44.699219 11.585938 42.335938 13.945312 42.335938 16.875 L 42.335938 18.859375 C 42.335938 15.929688 44.699219 13.570312 47.628906 13.570312 L 79.382812 13.570312 C 82.3125 13.570312 84.675781 15.929688 84.675781 18.859375 L 84.675781 16.875 C 84.675781 13.945312 82.3125 11.585938 79.382812 11.585938 Z M 26.460938 69.796875 C 22.847656 69.800781 20.667969 73.105469 21.253906 76.125 C 21.691406 73.800781 23.636719 71.785156 26.460938 71.78125 L 42.335938 71.78125 L 42.335938 69.796875 Z M 84.675781 69.796875 L 84.675781 71.78125 L 100.550781 71.78125 C 103.375 71.785156 105.320312 73.800781 105.757812 76.125 C 106.34375 73.105469 104.164062 69.800781 100.550781 69.796875 Z M 84.675781 69.796875 "/>
</g>
<mask id="mask2">
  <g filter="url(#alpha)">
<rect x="0" y="0" width="128" height="128" style="fill:rgb(0%,0%,0%);fill-opacity:0.988235;stroke:none;"/>
  </g>
</mask>
<clipPath id="clip3">
  <rect x="0" y="0" width="128" height="128"/>
</clipPath>
<g id="surface11" clip-path="url(#clip3)">
<path style=" stroke:none;fill-rule:nonzero;fill:rgb(0%,0%,0%);fill-opacity:0.235294;" d="M 21.183594 74.648438 C 21.039062 76.222656 21.585938 77.882812 23.015625 79.109375 L 60.0625 110.863281 C 62.042969 112.558594 64.96875 112.558594 66.949219 110.863281 L 103.996094 79.109375 C 105.425781 77.882812 105.976562 76.222656 105.828125 74.648438 C 105.710938 75.910156 105.132812 77.15625 103.996094 78.132812 L 66.949219 109.886719 C 64.96875 111.585938 62.042969 111.585938 60.0625 109.886719 L 23.015625 78.132812 C 21.878906 77.15625 21.300781 75.910156 21.183594 74.648438 Z M 21.183594 74.648438 "/>
</g>
<mask id="mask3">
  <g filter="url(#alpha)">
<rect x="0" y="0" width="128" height="128" style="fill:rgb(0%,0%,0%);fill-opacity:0.988235;stroke:none;"/>
  </g>
</mask>
<linearGradient id="linear1" gradientUnits="userSpaceOnUse" x1="254" y1="-126.333344" x2="254" y2="-105.166672" gradientTransform="matrix(0.250024,0,0,0.250024,0,53.755133)">
<stop offset="0" style="stop-color:rgb(0%,67.45098%,75.686275%);stop-opacity:1;"/>
<stop offset="1" style="stop-color:rgb(0%,73.72549%,83.137255%);stop-opacity:1;"/>
</linearGradient>
<clipPath id="clip4">
  <rect x="0" y="0" width="128" height="128"/>
</clipPath>
<g id="surface14" clip-path="url(#clip4)">
<path style=" stroke:none;fill-rule:nonzero;fill:url(#linear1);" d="M 42.335938 22.167969 L 84.675781 22.167969 L 84.675781 27.460938 L 42.335938 27.460938 Z M 42.335938 22.167969 "/>
</g>
<mask id="mask4">
  <g filter="url(#alpha)">
<rect x="0" y="0" width="128" height="128" style="fill:rgb(0%,0%,0%);fill-opacity:0.988235;stroke:none;"/>
  </g>
</mask>
<linearGradient id="linear2" gradientUnits="userSpaceOnUse" x1="254" y1="-126.333344" x2="254" y2="-105.166672" gradientTransform="matrix(0.250024,0,0,0.250024,0,64.33948)">
<stop offset="0" style="stop-color:rgb(0%,67.45098%,75.686275%);stop-opacity:1;"/>
<stop offset="1" style="stop-color:rgb(0%,73.72549%,83.137255%);stop-opacity:1;"/>
</linearGradient>
<clipPath id="clip5">
  <rect x="0" y="0" width="128" height="128"/>
</clipPath>
<g id="surface17" clip-path="url(#clip5)">
<path style=" stroke:none;fill-rule:nonzero;fill:url(#linear2);" d="M 42.335938 32.753906 L 84.675781 32.753906 L 84.675781 38.046875 L 42.335938 38.046875 Z M 42.335938 32.753906 "/>
</g>
<mask id="mask5">
  <g filter="url(#alpha)">
<rect x="0" y="0" width="128" height="128" style="fill:rgb(0%,0%,0%);fill-opacity:0.988235;stroke:none;"/>
  </g>
</mask>
<linearGradient id="linear3" gradientUnits="userSpaceOnUse" x1="254" y1="-126.333344" x2="254" y2="-105.166672" gradientTransform="matrix(0.250024,0,0,0.250024,0,74.923824)">
<stop offset="0" style="stop-color:rgb(0%,67.45098%,75.686275%);stop-opacity:1;"/>
<stop offset="1" style="stop-color:rgb(0%,73.72549%,83.137255%);stop-opacity:1;"/>
</linearGradient>
<clipPath id="clip6">
  <rect x="0" y="0" width="128" height="128"/>
</clipPath>
<g id="surface20" clip-path="url(#clip6)">
<path style=" stroke:none;fill-rule:nonzero;fill:url(#linear3);" d="M 42.335938 43.335938 L 84.675781 43.335938 L 84.675781 48.628906 L 42.335938 48.628906 Z M 42.335938 43.335938 "/>
</g>
<mask id="mask6">
  <g filter="url(#alpha)">
<rect x="0" y="0" width="128" height="128" style="fill:rgb(0%,0%,0%);fill-opacity:0.988235;stroke:none;"/>
  </g>
</mask>
<clipPath id="clip7">
  <rect x="0" y="0" width="128" height="128"/>
</clipPath>
<g id="surface23" clip-path="url(#clip7)">
<path style=" stroke:none;fill-rule:nonzero;fill:rgb(100%,100%,100%);fill-opacity:0.392157;" d="M 42.335938 48.628906 L 84.675781 48.628906 L 84.675781 49.953125 L 42.335938 49.953125 Z M 42.335938 48.628906 "/>
</g>
<mask id="mask7">
  <g filter="url(#alpha)">
<rect x="0" y="0" width="128" height="128" style="fill:rgb(0%,0%,0%);fill-opacity:0.988235;stroke:none;"/>
  </g>
</mask>
<clipPath id="clip8">
  <rect x="0" y="0" width="128" height="128"/>
</clipPath>
<g id="surface26" clip-path="url(#clip8)">
<path style=" stroke:none;fill-rule:nonzero;fill:rgb(100%,100%,100%);fill-opacity:0.392157;" d="M 42.335938 38.046875 L 84.675781 38.046875 L 84.675781 39.367188 L 42.335938 39.367188 Z M 42.335938 38.046875 "/>
</g>
<mask id="mask8">
  <g filter="url(#alpha)">
<rect x="0" y="0" width="128" height="128" style="fill:rgb(0%,0%,0%);fill-opacity:0.988235;stroke:none;"/>
  </g>
</mask>
<clipPath id="clip9">
  <rect x="0" y="0" width="128" height="128"/>
</clipPath>
<g id="surface29" clip-path="url(#clip9)">
<path style=" stroke:none;fill-rule:nonzero;fill:rgb(100%,100%,100%);fill-opacity:0.392157;" d="M 42.335938 27.460938 L 84.675781 27.460938 L 84.675781 28.785156 L 42.335938 28.785156 Z M 42.335938 27.460938 "/>
</g>
<mask id="mask9">
  <g filter="url(#alpha)">
<rect x="0" y="0" width="128" height="128" style="fill:rgb(0%,0%,0%);fill-opacity:0.988235;stroke:none;"/>
  </g>
</mask>
<clipPath id="clip10">
  <rect x="0" y="0" width="128" height="128"/>
</clipPath>
<g id="surface32" clip-path="url(#clip10)">
<path style=" stroke:none;fill-rule:nonzero;fill:rgb(0%,0%,0%);fill-opacity:0.235294;" d="M 42.335938 22.167969 L 84.675781 22.167969 L 84.675781 23.492188 L 42.335938 23.492188 Z M 42.335938 22.167969 "/>
</g>
<mask id="mask10">
  <g filter="url(#alpha)">
<rect x="0" y="0" width="128" height="128" style="fill:rgb(0%,0%,0%);fill-opacity:0.988235;stroke:none;"/>
  </g>
</mask>
<clipPath id="clip11">
  <rect x="0" y="0" width="128" height="128"/>
</clipPath>
<g id="surface35" clip-path="url(#clip11)">
<path style=" stroke:none;fill-rule:nonzero;fill:rgb(0%,0%,0%);fill-opacity:0.235294;" d="M 42.335938 32.753906 L 84.675781 32.753906 L 84.675781 34.074219 L 42.335938 34.074219 Z M 42.335938 32.753906 "/>
</g>
<mask id="mask11">
  <g filter="url(#alpha)">
<rect x="0" y="0" width="128" height="128" style="fill:rgb(0%,0%,0%);fill-opacity:0.988235;stroke:none;"/>
  </g>
</mask>
<clipPath id="clip12">
  <rect x="0" y="0" width="128" height="128"/>
</clipPath>
<g id="surface38" clip-path="url(#clip12)">
<path style=" stroke:none;fill-rule:nonzero;fill:rgb(0%,0%,0%);fill-opacity:0.235294;" d="M 42.335938 43.335938 L 84.675781 43.335938 L 84.675781 44.660156 L 42.335938 44.660156 Z M 42.335938 43.335938 "/>
</g>
<mask id="mask12">
  <g filter="url(#alpha)">
<rect x="0" y="0" width="128" height="128" style="fill:rgb(0%,0%,0%);fill-opacity:0.988235;stroke:none;"/>
  </g>
</mask>
<clipPath id="clip13">
  <rect x="0" y="0" width="128" height="128"/>
</clipPath>
<g id="surface41" clip-path="url(#clip13)">
<path style=" stroke:none;fill-rule:nonzero;fill:rgb(12.941177%,12.941177%,12.941177%);fill-opacity:1;" d="M 47.628906 11.210938 C 44.496094 11.210938 41.960938 13.742188 41.960938 16.875 L 41.960938 69.421875 L 26.460938 69.421875 C 23.847656 69.421875 21.90625 71.066406 21.144531 73.125 C 20.382812 75.183594 20.789062 77.691406 22.773438 79.394531 L 59.816406 111.144531 C 61.9375 112.964844 65.074219 112.964844 67.195312 111.144531 L 104.238281 79.394531 C 106.222656 77.691406 106.628906 75.183594 105.867188 73.125 C 105.105469 71.066406 103.164062 69.421875 100.550781 69.421875 L 85.050781 69.421875 L 85.050781 16.875 C 85.050781 13.742188 82.515625 11.210938 79.382812 11.210938 Z M 47.628906 11.960938 L 79.382812 11.960938 C 82.113281 11.960938 84.300781 14.144531 84.300781 16.875 L 84.300781 69.796875 C 84.300781 70.003906 84.46875 70.171875 84.675781 70.171875 L 100.550781 70.171875 C 102.851562 70.171875 104.496094 71.589844 105.164062 73.382812 C 105.828125 75.179688 105.496094 77.328125 103.75 78.824219 L 66.707031 110.578125 C 64.863281 112.15625 62.148438 112.15625 60.304688 110.578125 L 23.261719 78.824219 C 21.515625 77.328125 21.183594 75.179688 21.851562 73.382812 C 22.515625 71.589844 24.160156 70.171875 26.460938 70.171875 L 42.335938 70.171875 C 42.542969 70.171875 42.710938 70.003906 42.710938 69.796875 L 42.710938 16.875 C 42.710938 14.144531 44.898438 11.960938 47.628906 11.960938 Z M 47.628906 11.960938 "/>
</g>
</defs>
<g id="surface1">
<path style=" stroke:none;fill-rule:nonzero;fill:url(#radial0);" d="M 63.507812 112.136719 L 74.089844 112.136719 L 74.089844 106.84375 L 63.507812 106.84375 Z M 63.507812 112.136719 "/>
<path style=" stroke:none;fill-rule:nonzero;fill:url(#radial1);" d="M 63.507812 112.136719 L 52.921875 112.136719 L 52.921875 117.429688 L 63.507812 117.429688 Z M 63.507812 112.136719 "/>
<path style=" stroke:none;fill-rule:nonzero;fill:url(#radial2);" d="M 63.507812 112.136719 L 52.921875 112.136719 L 52.921875 106.84375 L 63.507812 106.84375 Z M 63.507812 112.136719 "/>
<path style=" stroke:none;fill-rule:nonzero;fill:url(#radial3);" d="M 63.507812 112.136719 L 74.089844 112.136719 L 74.089844 117.429688 L 63.507812 117.429688 Z M 63.507812 112.136719 "/>
<use xlink:href="#surface5" mask="url(#mask0)"/>
<use xlink:href="#surface8" mask="url(#mask1)"/>
<use xlink:href="#surface11" mask="url(#mask2)"/>
<use xlink:href="#surface14" mask="url(#mask3)"/>
<use xlink:href="#surface17" mask="url(#mask4)"/>
<use xlink:href="#surface20" mask="url(#mask5)"/>
<use xlink:href="#surface23" mask="url(#mask6)"/>
<use xlink:href="#surface26" mask="url(#mask7)"/>
<use xlink:href="#surface29" mask="url(#mask8)"/>
<use xlink:href="#surface32" mask="url(#mask9)"/>
<use xlink:href="#surface35" mask="url(#mask10)"/>
<use xlink:href="#surface38" mask="url(#mask11)"/>
<use xlink:href="#surface41" mask="url(#mask12)"/>
</g>
</svg>

<svg xmlns="http://www.w3.org/2000/svg" xmlns:xlink="http://www.w3.org/1999/xlink" width="128pt" height="128pt" viewBox="0 0 128 128"><defs><radialGradient id="s" gradientUnits="userSpaceOnUse" cx="450.909" cy="189.579" fx="450.909" fy="189.579" r="21.167" gradientTransform="matrix(0 -.31253 -.56255 0 168.831 254.381)"><stop offset="0" stop-opacity=".314"/><stop offset=".222" stop-opacity=".275"/><stop offset="1" stop-opacity="0"/></radialGradient><radialGradient id="t" gradientUnits="userSpaceOnUse" cx="450.909" cy="189.579" fx="450.909" fy="189.579" r="21.167" gradientTransform="matrix(0 .31253 .56255 0 -41.82 -30.11)"><stop offset="0" stop-opacity=".314"/><stop offset=".222" stop-opacity=".275"/><stop offset="1" stop-opacity="0"/></radialGradient><radialGradient id="u" gradientUnits="userSpaceOnUse" cx="450.909" cy="189.579" fx="450.909" fy="189.579" r="21.167" gradientTransform="matrix(0 -.31253 .56255 0 -41.82 254.381)"><stop offset="0" stop-opacity=".314"/><stop offset=".222" stop-opacity=".275"/><stop offset="1" stop-opacity="0"/></radialGradient><radialGradient id="v" gradientUnits="userSpaceOnUse" cx="450.909" cy="189.579" fx="450.909" fy="189.579" r="21.167" gradientTransform="matrix(0 .31253 -.56255 0 168.831 -30.11)"><stop offset="0" stop-opacity=".314"/><stop offset=".222" stop-opacity=".275"/><stop offset="1" stop-opacity="0"/></radialGradient><filter id="a" filterUnits="objectBoundingBox" x="0%" y="0%" width="100%" height="100%"><feColorMatrix in="SourceGraphic" values="0 0 0 0 1 0 0 0 0 1 0 0 0 0 1 0 0 0 1 0"/></filter><mask id="x"><path fill-opacity=".988" d="M0 0h128v128H0z" filter="url(#a)"/></mask><linearGradient id="c" gradientUnits="userSpaceOnUse" x1="960" y1="1695.118" x2="960" y2="175.118" gradientTransform="scale(.06615)"><stop offset="0" stop-color="#26c6da"/><stop offset="1" stop-color="#4dd0e1"/></linearGradient><clipPath id="b"><path d="M0 0h128v128H0z"/></clipPath><g id="w" clip-path="url(#b)"><path d="M47.629 11.586a5.281 5.281 0 0 0-5.293 5.289v52.922H26.46c-4.914.004-7.172 6.113-3.445 9.312l37.047 31.754a5.298 5.298 0 0 0 6.886 0l37.047-31.754c3.73-3.199 1.469-9.308-3.445-9.312H84.676V16.875c0-2.93-2.364-5.29-5.293-5.29zm0 0" fill="url(#c)"/></g><mask id="z"><path fill-opacity=".988" d="M0 0h128v128H0z" filter="url(#a)"/></mask><clipPath id="d"><path d="M0 0h128v128H0z"/></clipPath><g id="y" clip-path="url(#d)"><path d="M47.629 11.586a5.281 5.281 0 0 0-5.293 5.289v1.984c0-2.93 2.363-5.289 5.293-5.289h31.754c2.93 0 5.293 2.36 5.293 5.29v-1.985c0-2.93-2.364-5.29-5.293-5.29zM26.46 69.796c-3.613.005-5.793 3.31-5.207 6.329.437-2.324 2.383-4.34 5.207-4.344h15.875v-1.984zm58.215 0v1.985h15.875c2.824.004 4.77 2.02 5.207 4.344.586-3.02-1.594-6.324-5.207-6.328zm0 0" fill="#fff" fill-opacity=".392"/></g><mask id="B"><path fill-opacity=".988" d="M0 0h128v128H0z" filter="url(#a)"/></mask><clipPath id="e"><path d="M0 0h128v128H0z"/></clipPath><g id="A" clip-path="url(#e)"><path d="M21.184 74.648c-.145 1.575.402 3.235 1.832 4.461l37.047 31.754a5.298 5.298 0 0 0 6.886 0l37.047-31.754c1.43-1.226 1.98-2.886 1.832-4.46-.117 1.261-.695 2.507-1.832 3.484L66.95 109.887a5.289 5.289 0 0 1-6.886 0L23.016 78.133c-1.137-.977-1.715-2.223-1.832-3.485zm0 0" fill-opacity=".235"/></g><mask id="D"><path fill-opacity=".988" d="M0 0h128v128H0z" filter="url(#a)"/></mask><linearGradient id="g" gradientUnits="userSpaceOnUse" x1="254" y1="-126.333" x2="254" y2="-105.167" gradientTransform="matrix(.25002 0 0 .25002 0 53.755)"><stop offset="0" stop-color="#00acc1"/><stop offset="1" stop-color="#00bcd4"/></linearGradient><clipPath id="f"><path d="M0 0h128v128H0z"/></clipPath><g id="C" clip-path="url(#f)"><path d="M42.336 22.168h42.34v5.293h-42.34zm0 0" fill="url(#g)"/></g><mask id="F"><path fill-opacity=".988" d="M0 0h128v128H0z" filter="url(#a)"/></mask><linearGradient id="i" gradientUnits="userSpaceOnUse" x1="254" y1="-126.333" x2="254" y2="-105.167" gradientTransform="matrix(.25002 0 0 .25002 0 64.34)"><stop offset="0" stop-color="#00acc1"/><stop offset="1" stop-color="#00bcd4"/></linearGradient><clipPath id="h"><path d="M0 0h128v128H0z"/></clipPath><g id="E" clip-path="url(#h)"><path d="M42.336 32.754h42.34v5.293h-42.34zm0 0" fill="url(#i)"/></g><mask id="H"><path fill-opacity=".988" d="M0 0h128v128H0z" filter="url(#a)"/></mask><linearGradient id="k" gradientUnits="userSpaceOnUse" x1="254" y1="-126.333" x2="254" y2="-105.167" gradientTransform="matrix(.25002 0 0 .25002 0 74.924)"><stop offset="0" stop-color="#00acc1"/><stop offset="1" stop-color="#00bcd4"/></linearGradient><clipPath id="j"><path d="M0 0h128v128H0z"/></clipPath><g id="G" clip-path="url(#j)"><path d="M42.336 43.336h42.34v5.293h-42.34zm0 0" fill="url(#k)"/></g><mask id="J"><path fill-opacity=".988" d="M0 0h128v128H0z" filter="url(#a)"/></mask><clipPath id="l"><path d="M0 0h128v128H0z"/></clipPath><g id="I" clip-path="url(#l)"><path d="M42.336 48.629h42.34v1.324h-42.34zm0 0" fill="#fff" fill-opacity=".392"/></g><mask id="L"><path fill-opacity=".988" d="M0 0h128v128H0z" filter="url(#a)"/></mask><clipPath id="m"><path d="M0 0h128v128H0z"/></clipPath><g id="K" clip-path="url(#m)"><path d="M42.336 38.047h42.34v1.32h-42.34zm0 0" fill="#fff" fill-opacity=".392"/></g><mask id="N"><path fill-opacity=".988" d="M0 0h128v128H0z" filter="url(#a)"/></mask><clipPath id="n"><path d="M0 0h128v128H0z"/></clipPath><g id="M" clip-path="url(#n)"><path d="M42.336 27.46h42.34v1.325h-42.34zm0 0" fill="#fff" fill-opacity=".392"/></g><mask id="P"><path fill-opacity=".988" d="M0 0h128v128H0z" filter="url(#a)"/></mask><clipPath id="o"><path d="M0 0h128v128H0z"/></clipPath><g id="O" clip-path="url(#o)"><path d="M42.336 22.168h42.34v1.324h-42.34zm0 0" fill-opacity=".235"/></g><mask id="R"><path fill-opacity=".988" d="M0 0h128v128H0z" filter="url(#a)"/></mask><clipPath id="p"><path d="M0 0h128v128H0z"/></clipPath><g id="Q" clip-path="url(#p)"><path d="M42.336 32.754h42.34v1.32h-42.34zm0 0" fill-opacity=".235"/></g><mask id="T"><path fill-opacity=".988" d="M0 0h128v128H0z" filter="url(#a)"/></mask><clipPath id="q"><path d="M0 0h128v128H0z"/></clipPath><g id="S" clip-path="url(#q)"><path d="M42.336 43.336h42.34v1.324h-42.34zm0 0" fill-opacity=".235"/></g><mask id="V"><path fill-opacity=".988" d="M0 0h128v128H0z" filter="url(#a)"/></mask><clipPath id="r"><path d="M0 0h128v128H0z"/></clipPath><g id="U" clip-path="url(#r)"><path d="M47.629 11.21a5.661 5.661 0 0 0-5.668 5.665v52.547h-15.5c-2.613 0-4.555 1.644-5.316 3.703-.762 2.059-.356 4.566 1.628 6.27l37.043 31.75a5.668 5.668 0 0 0 7.38 0l37.042-31.75c1.985-1.704 2.39-4.211 1.63-6.27-.763-2.059-2.704-3.703-5.317-3.703h-15.5V16.875a5.661 5.661 0 0 0-5.668-5.664zm0 .75h31.754a4.896 4.896 0 0 1 4.918 4.915v52.922c0 .207.168.375.375.375h15.875c2.3 0 3.945 1.418 4.613 3.21.664 1.798.332 3.946-1.414 5.442l-37.043 31.754a4.92 4.92 0 0 1-6.402 0L23.262 78.824c-1.746-1.496-2.078-3.644-1.41-5.441.664-1.793 2.308-3.211 4.609-3.211h15.875a.375.375 0 0 0 .375-.375V16.875a4.896 4.896 0 0 1 4.918-4.914zm0 0" fill="#212121"/></g></defs><path d="M63.508 112.137H74.09v-5.293H63.508zm0 0" fill="url(#s)"/><path d="M63.508 112.137H52.922v5.293h10.586zm0 0" fill="url(#t)"/><path d="M63.508 112.137H52.922v-5.293h10.586zm0 0" fill="url(#u)"/><path d="M63.508 112.137H74.09v5.293H63.508zm0 0" fill="url(#v)"/><use xlink:href="#w" mask="url(#x)"/><use xlink:href="#y" mask="url(#z)"/><use xlink:href="#A" mask="url(#B)"/><use xlink:href="#C" mask="url(#D)"/><use xlink:href="#E" mask="url(#F)"/><use xlink:href="#G" mask="url(#H)"/><use xlink:href="#I" mask="url(#J)"/><use xlink:href="#K" mask="url(#L)"/><use xlink:href="#M" mask="url(#N)"/><use xlink:href="#O" mask="url(#P)"/><use xlink:href="#Q" mask="url(#R)"/><use xlink:href="#S" mask="url(#T)"/><use xlink:href="#U" mask="url(#V)"/></svg>
